X: 21322
T: POLKA QUADRILLES. No. 2.--l'\'Ete.
%R: polka, reel
B: W. Hamilton "Universal Tune-Book" Vol. 2 Glasgow 1846 p.132 #2
S: http://s3-eu-west-1.amazonaws.com/itma.dl.printmaterial/book_pdfs/hamiltonvol2web.pdf
Z: 2016 John Chambers <jc:trillian.mit.edu>
M: 2/4
L: 1/16
K: G
% - - - - - - - - - - - - - - - - - - - - - - - - -
[|\
G2z2 (cB)(cd) | (ed)(ef) (g^f)(gf) |\
agfg (e=f^fg) | ddddd2z2 |\
G2z2 (BABc) | d^cde fefg |\
(ag^fg) e=f(^fg) | cccc c2z2 H|]
K: F
f2f2"^<"a2 zf | f2e2e2 ze |\
g2g2"^<"b2 ze | g2f2f2 za |\
b2b2"_<"d'2 zb | b2a2a2 za |\
(a2g2)(g2e2) | g2f2f2"^D.C."z2 |]
% - - - - - - - - - - - - - - - - - - - - - - - - -

%%sep 1 1 500
%%sep 1 1 500

